X:183
T:
N:Om en pojke något vanställd i ansiktet.
S:Uppt. efter båtsman Hesselby i Rone.
M:3/4
L:1/8
K:F
A c F2 F F|G F A2 F F|F A c2 d e|
w:Ou-rä sor-kän kann in-tä röi-kä, fö un-dast käf-ten va
f d c2 z2|B c d2 G B|A B c2 F F|
w:allt fö kort. Nä an ein gaŋg skudd gynn fö-söi-kä, Da
A G B2 E2|G F F2 z2:|
w:tapp-tä han mun-styk-kä bort.
